X: 1
T: Blair Athole
R: reel
Z: 2008 John Chambers <jc:trillian.mit.edu>
S: http://www.scottishfiddlers.com/Sydney/Music/PDFs/National%20Set%2002.pdf
M: C|
L: 1/8
K: Ador
E2 \
| "Am"A2AB AGEG | ABcd edcB | A2AB AGEF | "G"G2BG dBGB |
| "Am"A2AB AGEG | ABcd ecae | "G"gedB GABd | "Am"c2A2 A2 ||
e^g \
| "Am"a2ab agec | ABcd ecBA | "G"g2ga gedB | GABc dBG2 |
| "Am"a2ab agec | ABcd ecae | "G"gedB GABd | "Am"c2A2 A2 |]
